X:2
T:I Left My Heart In San Francisco
C:George Cory
L:1/4
M:C
I:linebreak $
K:Eb
"G7" z G A c S||"Eb" B2"Fm" z2 |"Gm" B c"Gbo" d e |"Fm" c"FmM" F3- |
"Fm" F F"Fm6" =E F Ox/||$"Fm" c4- |"Bb7" c e d B |"Eb" G2"Cm" z2 |"Fm" G2"E7" G A |
"Eb" B/A/G/A/ B2- |$"Ebm" B2"Ab7" c2 |"Dm" d/c/B/c/ d2- |"G7" d d ^c d |"Cm" e3 f |$"F7" d3 F |
"Fm" B2"Gm" z2 |"Ab" B G"Bb7" A "_D.S. al Coda" c ||O"Bb7" d4- |$"A7" d d"Ab7" e f |"G7" g4- |
g g ^f g |"C7" a3 g | =e =e f g |$"F7" f c3- | c c =B c |"Fm" a3 a "FmM" x4|"Fm" g3 B "E7" x4|
"Eb6" e4 |]

